/* XPM */
static char *grass_xpm[] = {
/* columns rows colors chars-per-pixel */
"64 64 4 1 ",
"  c #377D22",
". c #4AAA27",
"X c #5DC264",
"o c #51B03C",
/* pixels */
" ... .. .X..o.X.X.X...o.X.X...X.X.. . .X..o.X.X.X...o.X.X...",
".. . . . .   . . . . . . . . . . . . . .   . . . . . . . . .",
". . .o.o. . .o.o. . .o.o. . .o.o. . . .o.o. . .o.o. . .o.o. ",
". . .o.o. . .o.o. . .o.o. . .o.o. . . .o.o. . .o.o. . .o.o. ",
" . . . . . . . . . . . . . . . . . . . . . . . . . . . . . .",
" .o. .o. .o. .o. .o. .o. .o. .o. .o. .o. .o. .o. .o. .o. .o.",
"o. .o. .o. .o. .o. .o. .o. .o. .o. .o. .o. .o. .o. .o. .o. .",
" . . . . . . . . . . . . . . . . . . . . . . . . . . . . . .",
". . .o.o. . .o.o. . .o.o. . .o.o. . . .o.o. . .o.o. . .o.o. ",
". . .o.o. . .o.o. . .o.o. . .o.o. . . .o.o. . .o.o. . .o.o. ",
" . . . . . . . . . . . . . . . . . . . . . . . . . . . . . .",
" .o. .o. .o. .o. .o. .o. .o. .o. .o. .o. .o. .o. .o. .o. .o.",
"o. .o. .o. .o. .o. .o. .o. .o. .o. .o. .o. .o. .o. .o. .o. .",
" . . . . . . . . . . . . . . . . . . . . . . . . . . . . . .",
". . .o.o. . .o.o. . .o.o. . .o.o. . . .o.o. . .o.o. . .o.o. ",
". . .o.o. . .o.o. . .o.o. . .o.o. . . .o.o. . .o.o. . .o.o. ",
" . . . . . . . . . . . . . . . . . . . . . . . . . . . . . .",
" .o. .o. .o. .o. .o. .o. .o. .o. .o. .o. .o. .o. .o. .o. .o.",
"o. .o. .o. .o. .o. .o. .o. .o. .o. .o. .o. .o. .o. .o. .o. .",
" . . . . . . . . . . . . . . . . . . . . . . . . . . . . . .",
". . .o.o. . .o.o. . .o.o. . .o.o. . . .o.o. . .o.o. . .o.o. ",
". . .o.o. . .o.o. . .o.o. . .o.o. . . .o.o. . .o.o. . .o.o. ",
" . . . . . . . . . . . . . . . . . . . . . . . . . . . . . .",
" .o. .o. .o. .o. .o. .o. .o. .o. .o. .o. .o. .o. .o. .o. .o.",
"o. .o. .o. .o. .o. .o. .o. .o. .o. .o. .o. .o. .o. .o. .o. .",
" . . . . . . . . . . . . . . . . . . . . . . . . . . . . . .",
". . .o.o. . .o.o. . .o.o. . .o.o. . . .o.o. . .o.o. . .o.o. ",
". . .o.o. . .o.o. . .o.o. . .o.o. . . .o.o. . .o.o. . .o.o. ",
" . . . . . . . . . . . . . . . . . . . . . . . . . . . . . .",
" .o. .o. .o. .o. .o. .o. .o. .o. .o. .o. .o. .o. .o. .o. .o.",
"o. .o. .o. .o. .o. .o. .o. .o. .o. .o. .o. .o. .o. .o. .o. .",
" . . . . . . . . . . . . . . . . . . . . . . . . . . . . . .",
". . .o.o. . .o.o. . .o.o. . .o.o. . . .o.o. . .o.o. . .o.o. ",
". . .o.o. . .o.o. . .o.o. . .o.o. . . .o.o. . .o.o. . .o.o. ",
" . . . . . . . . . . . . . . . . . . . . . . . . . . . . . .",
" .o. .o. .o. .o. .o. .o. .o. .o. .o. .o. .o. .o. .o. .o. .o.",
"o. .o. .o. .o. .o. .o. .o. .o. .o. .o. .o. .o. .o. .o. .o. .",
" . . . . . . . . . . . . . . . . . . . . . . . . . . . . . .",
". . .o.o. . .o.o. . .o.o. . .o.o. . . .o.o. . .o.o. . .o.o. ",
". . .o.o. . .o.o. . .o.o. . .o.o. . . .o.o. . .o.o. . .o.o. ",
" . . . . . . . . . . . . . . . . . . . . . . . . . . . . . .",
" .o. .o. .o. .o. .o. .o. .o. .o. .o. .o. .o. .o. .o. .o. .o.",
"o. .o. .o. .o. .o. .o. .o. .o. .o. .o. .o. .o. .o. .o. .o. .",
" . . . . . . . . . . . . . . . . . . . . . . . . . . . . . .",
". . .o.o. . .o.o. . .o.o. . .o.o. . . .o.o. . .o.o. . .o.o. ",
". . .o.o. . .o.o. . .o.o. . .o.o. . . .o.o. . .o.o. . .o.o. ",
" . . . . . . . . . . . . . . . . . . . . . . . . . . . . . .",
" .o. .o. .o. .o. .o. .o. .o. .o. .o. .o. .o. .o. .o. .o. .o.",
"o. .o. .o. .o. .o. .o. .o. .o. .o. .o. .o. .o. .o. .o. .o. .",
" . . . . . . . . . . . . . . . . . . . . . . . . . . . . . .",
". . .o.o. . .o.o. . .o.o. . .o.o. . . .o.o. . .o.o. . .o.o. ",
". . .o.o. . .o.o. . .o.o. . .o.o. . . .o.o. . .o.o. . .o.o. ",
" . . . . . . . . . . . . . . . . . . . . . . . . . . . . . .",
" .o. .o. .o. .o. .o. .o. .o. .o. .o. .o. .o. .o. .o. .o. .o.",
"o. .o. .o. .o. .o. .o. .o. .o. .o. .o. .o. .o. .o. .o. .o. .",
" . . . . . . . . . . . . . . . . . . . . . . . . . . . . . .",
". . .o.o. . .o.o. . .o.o. . .o.o. . . .o.o. . .o.o. . .o.o. ",
". . .o.o. . .o.o. . .o.o. . .o.o. . . .o.o. . .o.o. . .o.o. ",
" . . . . . . . . . . . . . . . . . . . . . . . . . . . . . .",
" .o. .o. .o. .o. .o. .o. .o. .o. .o. .o. .o. .o. .o. .o. .o.",
"o. .o. .o. .o. .o. .o. .o. .o. .o. .o. .o. .o. .o. .o. .o. .",
" . . . . . . . . . . . . . . . . . . . . . . . . . . . . . .",
"X.X... .X.X.X...X.X... .X.X.X...X.X... .X.X.X...X.X... .X.X."
};
