/* XPM */
static char *horror_wall_1[] = {
/* columns rows colors chars-per-pixel */
"64 64 143 2 ",
"   c #040201",
".  c #0A0503",
"X  c #0D0906",
"o  c #0D0B09",
"O  c #110705",
"+  c #120906",
"@  c #1A0B07",
"#  c #140D09",
"$  c #1B0E09",
"%  c #15110D",
"&  c #1B120D",
"*  c #161511",
"=  c #1B1612",
"-  c #1D1915",
";  c #1F1D18",
":  c #220B07",
">  c #220E09",
",  c #290F09",
"<  c #23120D",
"1  c #2A130D",
"2  c #33140D",
"3  c #3B160D",
"4  c #3A180E",
"5  c #231711",
"6  c #2B1710",
"7  c #231A15",
"8  c #2B1B14",
"9  c #231E19",
"0  c #2A1F19",
"q  c #331C14",
"w  c #3C1C13",
"e  c #301F18",
"r  c #24221D",
"t  c #2C221B",
"y  c #322017",
"u  c #34241B",
"i  c #3B251B",
"p  c #3D281E",
"a  c #2C2621",
"s  c #2E2924",
"d  c #342720",
"f  c #342A23",
"g  c #3B2C23",
"h  c #322D29",
"j  c #36322B",
"k  c #3C332B",
"l  c #3E382F",
"z  c #3B3630",
"x  c #3E3931",
"c  c #45150E",
"v  c #4D170F",
"b  c #49190F",
"n  c #421C12",
"m  c #4E1A12",
"M  c #581E12",
"N  c #432316",
"B  c #4D2116",
"V  c #422419",
"C  c #4A271A",
"Z  c #43291E",
"A  c #4B2B1E",
"S  c #542416",
"D  c #5C2417",
"F  c #5A2817",
"G  c #522B1C",
"H  c #602314",
"J  c #632D1B",
"K  c #442D22",
"L  c #4B2E22",
"P  c #522E21",
"I  c #453126",
"U  c #4C3125",
"Y  c #43352A",
"T  c #4B3429",
"R  c #46382E",
"E  c #4A392D",
"W  c #513326",
"Q  c #5B3425",
"!  c #5D3823",
"~  c #52362A",
"^  c #5A3728",
"/  c #543A2C",
"(  c #5C3B2B",
")  c #423C34",
"_  c #4A3C31",
"`  c #443E38",
"'  c #533D31",
"]  c #5C3F32",
"[  c #643520",
"{  c #613A26",
"}  c #6D3C24",
"|  c #623D2D",
" . c #6A3F2D",
".. c #464037",
"X. c #4C4136",
"o. c #464039",
"O. c #4B443B",
"+. c #534134",
"@. c #5D4335",
"#. c #504539",
"$. c #5B4A3C",
"%. c #63422E",
"&. c #6D402B",
"*. c #79462C",
"=. c #78482A",
"-. c #624434",
";. c #6A4433",
":. c #694836",
">. c #654D3C",
",. c #6A4A39",
"<. c #724634",
"1. c #734933",
"2. c #794B32",
"3. c #6E503F",
"4. c #5B544C",
"5. c #645243",
"6. c #6A5141",
"7. c #7B5642",
"8. c #755846",
"9. c #66615A",
"0. c #706555",
"q. c #864D2D",
"w. c #845336",
"e. c #81563A",
"r. c #845B3D",
"t. c #8B593A",
"y. c #905D3D",
"u. c #8E623D",
"i. c #8E6444",
"p. c #906949",
"a. c #837765",
"s. c #B2875E",
"d. c #8D806D",
"f. c #9B8F7C",
"g. c #9E917E",
"h. c #908982",
"j. c #918F8A",
"k. c #A39885",
"l. c #A09B96",
"z. c #A8A6A3",
"x. c #C4C2BE",
"c. c #C4C4C3",
"v. c #FEFEFE",
/* pixels */
"< @ @ .   . O   . .     . .                                 .   . . . .   . . . . .           # @ $ > + X > , $ 6 , 1 $ X 1 > # ",
"$ X . @ . O O .   . .     . .                           .       . . .   . . . .     .         @ + $ 1 + $ @ < $ $ 6 # @ X + 6 6 ",
"< < $ + O O @ .   .   . . .                           .   .   .     .   . . . O . .           @ > $ w # $ 6 2 6 < 1 X X < < @ 1 ",
"# 1 @ O O . O . . . . . .     .                               . .     .   . .   .       .     @ > o 6 6 $ 4 q 6 6 & $ + 6 1 @ X ",
"@ > @   X   .                                                           . .   .   .         . X @ X + . . , @ > + O $ + $ X @ X ",
"* # X .                                                                                     . o s z ) ` O.O.4.` ` z z h h r ; * ",
"                                                                                        . .   X                                 ",
".                                                                       . X X . X       X .   . X o # * % # % o # X + . X   X X ",
"& # + & # + X + X + .   . . . .     .       .         .       .         . . .   X         X X X & & Z Z K < & i u i i & & & y 8 ",
"6 q q 6 & $ $ + @ . X   . . . . .   .           .     . . . . . .   . X . . .   X .   . X X o % y i Z U 7 t 7 i K u ^ L = y i y ",
"q % & $ < 1 $ $ X . . X . O . .     . . . .   .     .     .     X .   X . X X X + X o o # % % y A V u p 7 7 y 0 K ^ g K 7 L A 6 ",
"6 5 i 6 6 6 # + X X X X . . .       . . . . .     .     .   . . .   X . X . X X + # % % & < 8 i u K i 7 t 7 g K ^ L 8 u & i P i ",
"V C V 7 6 & & < X + X X X . .       .   . .       . . . .     . X . . . X X + X # $ % < 5 & & i i A A r 0 i -.{ K d = = 5 8 u y ",
"8 C q q i + 6 < # # @ + . . .   . .         .       . . . . . . X   . X # @ # # $ % & % 5 5 y A t u u 5 K u Z K u u u 7 U K 0 8 ",
"8 = y y i q 5 & X $ X + X X . . . O .       . . . .   . . . . .   o X X # + $ + & # # 8 = 5 8 y p Z W Z d d g L W W ~ 7 <. .K t ",
"t V G i 7 # < & # $ @ X X . . .   . .     . . . . .   . . . X . X o X X + # < & 5 & $ = y p Z V 7 t U Y g d i K | ;.W 5 L L g K ",
"A V L G 8 $ 5 # $ < X X X X X .   X X . .   . X .   . . . . + . . X X X + X X # 1 7 = q u Z Z i Z W f g g t 9 u E ( ( = U U i g ",
"W i W y = 5 6 = # + & X X X .   . .   . . . .     . . . X . X + . . X . + < & & % & 8 y 6 y L i u U T Y / :.I t I g U u ^ L | { ",
"0 L i y = & 6 6 $ o $ # . @ . . . . . X .         . .   . . . X   o o X X # & X % # 5 # 0 7 0 0 t %.I g :./ E Y a a d K ^ K W ^ ",
"V = 7 8 5 = 5 6 5 o X + + +   . .   .     .   . . . .   . . . .   . . . X X X & & & # & 5 7 u i r u +.g f / f f g f T / K K U ^ ",
"8 e V P V = # = & & $ + X X X   X   .   . . . . . . . .   . X X # + X + X # # X & & 5 7 d K Z L p t g +.p / T I T g / | -.g y K ",
"V e 8 u V 5 # & $ $ # # O X X . O .     . . . . .   .   .   + . + X + $ X X # & # < & 7 7 9 u g u W I %./ / %.Y @.-.T ~ | i K i ",
"i q 8 8 8 5 8 $ & # @ + $ X . X O     X     .   .             X . . $ # . # # % & & X . o o o * f Y I @.g @.( ( g E U ( ( K L P ",
"- - * # X . . .                                                             .     . X o * - ; * ; j l #.4.4.4.X.x k j s 9 = % = ",
".                                                                                       ; ; ; o . X & 9 f j z k s 7 % o .   .   ",
"X . . .                                                                         o o . . ; r ; * 9 j O.0.a.k.k.k.f.a.5.k - # X . ",
"# 5 % # < X X X X X                                           .     . . .   .   o . o   o * * o - I / k #.' $.$.5._ d d u - u = ",
"8 e 8 e % # o $ $ # X X . .               .     .       . .     . . . . o X X # % .   .   o * * u I / Y R ] >.6.5.,.g g s E K r ",
"9 i q 6 = # % & # # @ o X X . . .                 .           . . X . X X X X + & . . o o o * % t U g R -.,._ #.6.>.,.>.R ' d r ",
"d 8 = & 5 5 # # # + X . . . X X X . . . .       . . .       . . . . X X X X # X % X X % o o r - g I T k -.' _ _ 8.,.7.,.+.g d d ",
"= 5 # = 5 # # # $ X X X .     .   . . .         .         . . . . . X X X X # # o o o * % o s r +.f I k / _ X.) l.x.h.Y @.k a r ",
"= 9 = 5 & o # # o X X + . X .   .             X .   .     . .   . . X X . X + # o . * ; * o ..s $.f u @.>._ >.R c.v.z.R ] g d 0 ",
"= 5 & % # o o # . . O X . X .     .           .   X               . . . . X o & & o * ; * % O.h X.u f %.j g Y Y 9.j...~ U p r = ",
"% & % % # o o o . X X X . . . X X   .       X     .       o   . .   . o o X # X o . % r * % ..h f f u I h f f f r r t U k p y = ",
"= & & o # # o o X . . X X . .       .                         .   .   . . X . X o . * r * o ) h t u u r t u t g & * y g f u t - ",
"# # # o # # X X X .   . . X .         . .     X               .   X . . X X   X %   * r * % x h = 7 r y t r ; p # X t t t t r & ",
"% # o O % X X . . .   . . X . .       X   X       .           .   .   . . . o o o o o r * * x s & 7 t i 5 ; 7 & o   = t y 8 9 - ",
"= % o o o X X . .     . . .     X         .                         . . .   . X   o o r * * j r o & * & & 7 = 7 o . ; 0 0 7 = & ",
"& % # o # X o   . .   X       . o .   .     .                   . .   .   . o X o . o ; * o s ; o # * & & 8 7 8 % X - 5 7 - % & ",
"# # o O o o . . o . .     .       .     .                       . .   . X   X X . . . - * o r * . % & % % & & & % % % & & & & % ",
"& > X o X . . . . .   .   .       . . . .   .                     o       X X .   . . * o o - o . # # # & # & & & = & & 5 = & % ",
"# O o . . . . . . . . .         .   X     .           .               o     X X X     o o   * . . o # o & # & < 6 < & & < % < % ",
"# @ . . X . . . . . .   .     .   X .                     .             . . . . o     o . . o . X o % o & # 5 N Z i > 6 < & < & ",
"& @ X . . . . X . . . . .                                           . . . . . X X .         o     % # # < i %.u.i.! 2 1 5 < < & ",
"# o o . . X X O . .   .                   .                     .   . . . .   .             .   . # # & w G %.=.r.w.S n 2 < # # ",
"@ > X . . o O X . . .   .     . . .   . . .                           . . . X   .               . % # 4 S { u.p.i.s.u.} w 1 > $ ",
"@ @ . . . O . . .     .           . .     .                               .                       # # 2 B [ 1.2.w.2.w.t.G > < , ",
": o O X X O . O . .                     .                                     X X               . # 2 4 H J ( ! &.2.} J 3 > < @ ",
"# @ # O X . . O . . .       .                                           X     X               . # 1 3 b S n ^ ^ } q.*.F 2 @ $ @ ",
"O O X O . O . . .                                                   .                         X $ 2 4 2 q m D D H M c c 6 , o @ ",
"+ . . O O . @ . . O                                                             . .             # 2 3 2 n c m b c S n w , : + o ",
": $ + O . . . . . . .                                                   .   .   . .             @ 2 1 1 2 w q c n n 3 3 > @ + > ",
": , . . . . . . .           .                                                 . .               4 2 < 4 > q w N 3 D 6 S $ $ @ + ",
"# X X X . .                                                                                     # & t u R _ X.X.#.O.#._ g d 8 = ",
"                                                                                        X X .   . .   . . . . . . . . . .       ",
".                                                                                           .     . . o % & & # + O . . .     . ",
". . . .   .                                                                         .   . . .   X X X X . . . . . . .   .     . ",
"                                                                                                              .                 ",
"@ O O O O . . . .     .                   .                         .   . .   X . O . + . O @ @ : > @ : @ @ : : X O @ + + @ @ > ",
", @ @ @ @ O .   . O . .     .         .                     . . .   . . . X . . O O @ @ X $ + @ > < . , : 2 , @ O w 2 < . $ < $ ",
"X @ @ + O @ O . . . . O . . . .     .   .     . .         . .       O . .   O . . + @ O X + > 1 1 > + > > > 4 : $ 1 w X + $ 1 2 ",
"@ + $ + O . O . . O . . .   .                     .     . .       . O . O   . O O O O + X X o @ + @ @ $ @ 4 : 2 > 4 q X 1 X $ X ",
". > + . O O O . . O   . . .                                   . . . . . . . + O O + X X   . . O > < 2 1 1 . , $ 2 # > @ 4 + 1 + ",
"@ + O . O O . O . . . .   .   .     .                 .       .     . .     . . . X X   .   X X > X @ 2 1 > 2 O 1 @ > + 1 1 1 1 "
};
