/* XPM */
static char *horror_wall_3[] = {
/* columns rows colors chars-per-pixel */
"64 64 81 1 ",
"  c #040201",
". c #0A0503",
"X c #0D0806",
"o c #0E0B08",
"O c #110704",
"+ c #120A06",
"@ c #1B0B07",
"# c #130D09",
"$ c #1B0D09",
"% c #15110D",
"& c #1C120D",
"* c #161310",
"= c #1C1611",
"- c #1D1914",
"; c #220C07",
": c #280D07",
"> c #220E09",
", c #290E09",
"< c #23120D",
"1 c #2A130C",
"2 c #33140D",
"3 c #3A160E",
"4 c #231611",
"5 c #2B1710",
"6 c #241A15",
"7 c #2B1B14",
"8 c #251E19",
"9 c #2B1F18",
"0 c #371711",
"q c #331C13",
"w c #3B1D14",
"e c #301F18",
"r c #26211B",
"t c #2C221C",
"y c #33231C",
"u c #3B251B",
"i c #3E291E",
"p c #2B2520",
"a c #2F2A23",
"s c #342A23",
"d c #3B2C23",
"f c #3A2F2A",
"g c #3B3026",
"h c #36312B",
"j c #3C322A",
"k c #3B3630",
"l c #4C1F14",
"z c #422419",
"x c #4A271A",
"c c #43291E",
"v c #4B2B1E",
"b c #512C1E",
"n c #442C22",
"m c #4B2E22",
"M c #502E21",
"N c #423127",
"B c #4D3125",
"V c #43342A",
"C c #49362C",
"Z c #45392F",
"A c #4D392D",
"S c #523325",
"D c #5A3627",
"F c #523529",
"G c #593728",
"H c #553A2E",
"J c #5A3A2B",
"K c #403630",
"L c #443B33",
"P c #4E3C31",
"I c #443E38",
"U c #5A3D31",
"Y c #623B2B",
"T c #683D2A",
"R c #613F31",
"E c #464039",
"W c #4A443D",
"Q c #5C4133",
"! c #644233",
"~ c #6A4435",
"^ c #744B3B",
/* pixels */
"<@@..... .  ..                . .... .....     #@$>O+>1>1<<$X<<@",
"$X.@.XO. ..  ..                 .   ....       @X&1+$#<$$1#$X@1<",
"<<$+OO@. ... .               . ..  ....O..     @$<w$$10511XX<<#1",
"$<@++ O.... ..                 . . . .. .   .  @>O45%00q1&$#21#@",
"@>@ . .                             ..   .   . X@.@..<4>@o%+&.+X",
"*#o.                                           oskkIWWWIIkjhap-=",
"                                            .X .                ",
"                                  X  oo o   ... oo#*%#%oo.# X Xo",
"$#+%#+X+XO.  ...      .        .    . . .   ..XX$=icn4&uyiu&&%y5",
"7yq5&@&+# .......          . . .    ....o  X.Xo*tucv676ucyGv=yuq",
"q@@@<1@@+..X....  .   ..   . . .X XX.XXXXXoo+%#qxzui64y9nJcv4vv5",
"74u5q5##X.X.+..   ....   . .   .X X X.XX+o%%&47uynu6r6ynJn6y%ivu",
"zxz45%<@X+X...    .. .    ... . ..X.XXXX+$&&4==uuvc66zTYnu==6tyq",
"7xyqz#5&+#+@..  ..    .   ... ..X .X@#+$$##&45qctyy7dndmyy66cc76",
"7&qqu5&<#$@X.XX...OO... . ....XO+XX+@#+>&##<7quciuuynJmyDmcuBTnt",
"tubu6%<1o#X@+@X .O..O..  .  ..XXXX+#@o#$&$%<4uuzyuD78mSnFFu7Smun",
"vcvv7%<&&&+..+.. ..O.... .  X.XO#+#$&++<<<&%%%vccMucnBstDmitumui",
"Suby&<1%<$X+O+XO.O.OO..... ..OO@++$$$+$$&<=&XX7rtninGsnn~mSitvD!",
"tvuy%&1&o&@+..X....O....X.   ..XX###+#$%$+qXXX#7tciynnniicmitiMD",
"u&676=1<$<#XX...X .....  .  .XXX+++o+%&<4&<X%%+tuuDgSFymttcutimD",
"5yxvu&%%##++.XX.  ....     . .X.+##+$%&q4&$X%++yyyitigtyNniy6uyi",
"iq6yc<+%<#X#X .  . ..      X .Xo+++#&%&&&4&X&%#nstiSnuininirtucu",
"uq77747+$XX+O... .    .  ..X..X+oooo###=q7$o=&%ttnyiSSSSm!Bttibb",
"-=%%X.                          ......XXXXX+4==#%#%#%#%%++o#%%%=",
"                                          o+r4=#.. .......  .   ",
"XXX                                .  X  Xo%==*o#=-6=*#o##&4&oXX",
"#4%#<...XX.X .  .            . X#+XXooo%%oXo#o%%-rreddnsa-tFt-y&",
"775y%#o#<<XO<XXXX      .. . .oo+###o&%%*-o......8sdF~UU^!gJ!gCgr",
"8ue5&##<<#XX$XX+@.    . .   Xo++o#o%%%*-7%. .. -8jJ!!Ns~Qs!Q!Hyr",
"y7*&64#&$X+XX+XX    ..o . X  X.o#%#%%%%66&.#o%o&tHV~HHUQ!PAsCnat",
"-6%=1%#o#XXX X.    .    .  .  oo#o%oo%-4t& oo%XosdfAVNVAPLVsCgtr",
"-6&&%o+o+X... .  X o. . ..  XoXo+ooo%%&%6oX% o XrdVVjdjZZZgdNgyt",
"*4*&#ooXooX. X X o.  .. .XX. o oXoX##=#=*o % oXXrgjjVsjVCCVsyir-",
"%&%##+oooX X       ...   OX oXoooXo#%#&7%o o   Xrajggyggsaaaayt-",
"*&&##o#XXX XX  X  o  .. ..O.X  oXoo&$&%**o o  XXrhgsgsgystaaytr=",
"%#ooo#XoX.XXX              X   o oo&$=#&%o o    yysssygytrrtttr&",
"&#oo#oX X.X..   o .           o .oooo&+$*. o  X rtyytyyttrrrr7--",
"=#+oXXXXX..  ..    o      .    oX.#o#=$6%. o    rttysttrrr4r46=%",
"&##o#XX.X..             o    o oX XX###=%. X    -rrtyrrrt4r4-=%&",
"##o.Xo ... .... . .  o           o Xo$#$oX o    rr4rr-464t44=&&%",
"&&XXXX .. ..  ..X    .       X o  XXXXo%&o X    -664-4664445==&+",
"++XX.. . ..    ..  ..     ..    XXX XXoooX X    %&=-44&=-&5<&&&%",
"#@X .......... ... ..  .  ..   Xo XX.Xo#%.      %&&4<4<14=<11&<&",
"$$XX......O... ..... .      X  o o  .oX%&X o    %&&&<5q<44<41$<&",
"#+X....X....... ...        .  .  o XXX.@$. X    +&<<<2q125$<11+$",
"$>...X...OO.... .. ...      . .X  X oo+#%..     +&&>$xq1221231$$",
"$@.X.O..........O. .. .    ..     oX+%X#@. .    +<>><321q2<22:1:",
"$++.O..O..........  .      .X .  o oX+++o  .    @$>&$121&211>$>$",
"#@+.......... . .          . ..O .X  +.+#       +$&$$>>>$#@$;@;#",
"OO+X.OO.......   ..        .O.O......X..X       +@<@>>5,,##;,,O#",
"@..OO.O..... . . .   .    ......... .+XX.       @@@@,,>>>$#$;;++",
";@+O..........O . ...     .. ..XX....#X+X       +@##$>,>$3,;:@#;",
"$;X......... ...          .  ...O. ...+@X       +@>$,02<40>;,@@O",
"@O....  ... ...             .   O+X. .X+## #6p- rhfjKLLCVVddyt6=",
"                                          .Xoo#o.   .  .  .  .. ",
"                                       . oo#%*==&#$#@OO.OOO.. . ",
"....                                    .XX%-rtr=+X.........   .",
"                                           .   .                ",
"@OOOO..O  .. .             .      .  . X....X.XXX.@>+;;+;<@..@@@",
"<@@+@O.. ... .                 .   ...O.O.O+XX@#@$XO@;@X1,1@X@<$",
".@@+O@O .O.O  ..             ..  ........O@OX+><1,+>;12;$13+X;12",
"@@>.O.O..... ..          .       .... OOOOO+XXX@O++$$2;2>3w.<.@X",
".;+.OOO... . .                 . ... .OO.+X.  .+><211X,@2+>#2@<+",
"@++ O..O.... .                .   ..  ...@..  .O>.@2:;2+,@>+1111"
};
