/* XPM */
static char *horror_wall_2[] = {
/* columns rows colors chars-per-pixel */
"64 64 85 1 ",
"  c #040201",
". c #0B0503",
"X c #0D0906",
"o c #0E0B08",
"O c #110604",
"+ c #130A06",
"@ c #1A0B07",
"# c #140D09",
"$ c #1B0E09",
"% c #16110D",
"& c #1C120D",
"* c #151311",
"= c #1C1611",
"- c #1E1914",
"; c #230C07",
": c #2B0E07",
"> c #230E09",
", c #2B0E08",
"< c #310E08",
"1 c #24120C",
"2 c #2A130C",
"3 c #33130C",
"4 c #38170F",
"5 c #231610",
"6 c #2B1710",
"7 c #241A14",
"8 c #2B1B14",
"9 c #251E19",
"0 c #2A1F18",
"q c #331C14",
"w c #3A1D14",
"e c #301F18",
"r c #24221D",
"t c #2C221B",
"y c #3B2117",
"u c #33241B",
"i c #3B241B",
"p c #37281F",
"a c #3D281E",
"s c #2D2720",
"d c #2F2A24",
"f c #342A22",
"g c #3C2C23",
"h c #3C3026",
"j c #36312B",
"k c #3B342D",
"l c #3B3630",
"z c #42180E",
"x c #491C11",
"c c #42251A",
"v c #4A271A",
"b c #442A1E",
"n c #4C2C1F",
"m c #512C1E",
"M c #432D22",
"N c #4B2D21",
"B c #502E21",
"V c #453025",
"C c #4C3124",
"Z c #44332A",
"A c #4C3429",
"S c #4C392E",
"D c #533426",
"F c #5A3627",
"G c #533528",
"H c #5A3728",
"J c #543A2D",
"K c #59392A",
"L c #423C35",
"P c #4F3B30",
"I c #443E38",
"U c #523E33",
"Y c #5A3F33",
"T c #623C2B",
"R c #683D2A",
"E c #464039",
"W c #4A443D",
"Q c #5B4032",
"! c #5D443D",
"~ c #624233",
"^ c #6C4635",
"/ c #704736",
"( c #764A36",
") c #794F3C",
"_ c #7D513F",
/* pixels */
"1@@. XO  .  . .               . . ........    .+$$>++>,$6>,$o5,#",
"$XX+.XO. ..  ..             .   ..   ...       ++$5#$$5$$6#$.#61",
"11@+OX@......                . .    ......  .  @$$w@@24616.o5,@6",
"$2++O.O.. . ..             .   .. .. ....      @>o66#4qq6$$+66+O",
"@>$ X X                             .  . X   . o@X+X.,5>Oo$o$.+.",
"*#o                                            odllIWWWIIlljds--",
"                                            .. X                ",
".                                  . XX.o   .X .o+%**#%oooo.X..o",
"%+o$#+X+X+. . ..               .    . ...   ...X%=bbN1&yfiw==&u6",
"8wq8&$$++ o ...X.     .    . .   . .X .X.  XXXo*8ibb7t7uNeFN=qiq",
"q$&$15@$+. ..X..  . ..  .  . X Xo.o...XXoXoo##%qncia7-ytMKgM5Mn8",
"85w2q6##X.+XX..   .. ..    .   X  ..X.XX+o#%&&8iuni7r7faKN8e&iNy",
"yvv56&&@.+o...     ...   .... ..X...oXOXo$%15==yinb78aRTMp5=7tye",
"0vqqy#61#+++ .   .    X   .. .. X  o#$###&$%5=qbttu7ipiMeu00Ni87",
"7=qqy8&q&+X+...X... . .   ......XXX#+$++$$&&66y7u7tapgi70igiNRMt",
"ecBi6o151>+++.X .... . .    ..X+X  o$#####&58yuq&t5bDgNgCiNMNNgM",
"NcNB8$5$&1@.+ O.... .. ..   . .+XXXX#X&$&&&5qci8%&rqDbpirbDbMNaa",
"DiBq=5551@X+X.O....  ..   . .X.XX+.+$@&&1$#&6ybi=rrtCgnaiCgJMMHT",
"0Nie=$6$$$#+XOOO. .... ....X ..+XXX#&$$$&1&&&7yu&r7rggugMDCKVaDF",
"i=786=55#$+++.O+.......   ....X+..#>@&%##o#%%7=tt&ttpDCptiDDhbCD",
"8eMBi&#51$#+@OXO.. .. .... . .++XX$$$1$oo##%&tuyt-uCDAgCNtbaMaua",
"iq8qc5#+X#@X+OX  ....... .  ..++X$1X16$o%&587ybbptuFDDMCGpVtaaba",
"ww88858$++$++@.. X X.  .    X. .X$&.ooo%%=6qr8tupgrpfMhgVMCVVbnN",
"--*#o.                                     ..XXo####&=&-&=&&%%%-",
"                                            . ..o.X       XX    ",
"ooX                                        ..X.X.Xo. ...Xo#&&#X.",
"#5*#&..X    X  o    .  .     X..+++..XXXX1#&r%=%*uV-f-VJut9Ca-u=",
"8e88&#oo#X.X.XX*X   * .XX.  ..+X+&$+oo#&&=+8g76=9K(fssgU!hA^gAgr",
"9we8&##$oX.X X *X   *..X.O.. .X#+@#oo%o&&%.7Cu70tZ~fsfZShQZYjJpr",
"f0&&8&#oXoX+ . *o   *  X.... ..X+#&X%#o5#% tat&iMAQd9Z^UQSQ_~hut",
"=7#=1%o#XXX.X  *X   * .o...X. XX++%ooo%%%&&8gt&8pVJfrSJZJ~_/Qgsr",
"=8*=&oooXXXXX  o.   o   ... .X.XX&&#oo#%&-X7at&--gCt9MgAZhZZZgut",
"*1%%%XXoXX.oo  o    o    . XX .XX++XXX%&&5.=pt*&=guMVtuVhhdtgpt=",
"%&%%%ooo.o.     X   X   . .  . .XXX%%%%&&=X=u7o=rp-VVttpfMhttgt=",
"%&&o#Xo.X...            . .... XXXXoX##%&qX&r6X=%r-patttupttuut&",
"%%##XooX.....           .   . .XXOXXX#X#%%.&5&.%%%-uttttuuuuutr=",
"%%XX#oXoXX      .          . . .XoooXoo#%%.%7%X6=&7tt-t7qttu78-=",
"&&ooXXX  ..             .   .  ... .Xoo#2&.#&%X&-&&-7-7788q877=%",
"&%oo%.o  X               .   ........XX#&6.%&&X%=%=-7=--7788=-%&",
"##oXXXXXX                    ....Xo..X@1>1X#=&Xo%o*=-%&-&&5&5&&%",
"&@oo.o ..   .            ....O.....XXO++$&.+@&XX###%&%%&&&&&1&&#",
"#+.o. ..                 ...O......OX+X+#$.X#%.X#o%%%%&155%&&$&%",
"#+X..o...               ...OO.....XX+X++#+ X&$.X#%$%%%$5&21&1&1&",
"$$X.. .... ..   X       ......OO....OXX++# +2#X+###%$$11&1144&1&",
"++X..X......           ....OOOOOO...O+X.oX +#+O+$$$$1&;1$$$4x1#$",
"@>...XO......          ....OOOOOOO...XXX+#..##.+&>&>>2$11123z2;&",
"$@.X.O.....  .  .     .....OOOOOOO.OOOOOX+.X@+OO>>>:>>$$1>1331>:",
"@oXoO..O.....         .....OO.OO.O...OXXX+..+@O@>&>>@$$$>>$:;@1@",
"+$OoX..O....          ... .O.O.O.OO..O...+ X+@.@>>>>$@1;>1@1:$;+",
"++OX..O......         .  ....OOO.....OX..O O++O+>>>>>$;$;;$>;1++",
"+XXXO.X..... ..       .....O.OO.O.....X.X. X+@.O@&>:,,$$;:@@;$++",
">@OO....O.....  .    ... ....OO......OO.+o X@#O+>&>:$,,,>;;::@+;",
";;...........   .     . .  ..O..........XX X++O@>>1>1:,@@@@<<@@+",
"+Xo.... ..                      .  .   ....XXXX&&&--57t78tu0tt8&",
"                                                .               ",
"                                             . ....  ........ . ",
".. ..                                         .  .......... .  .",
"                                                    . . .       ",
"@+OOO  .... .                       .. O...X.O+>@;.>@;@:O@@+@++;",
"2+@@@O.. .O        .   ..      .  .......XO+@O@@;2X@+;@+O2>++@1$",
"X@$+O@O .... ...    .  .    ...   ... ...@+OXO>2,>+>;13,@2wOX@23",
"@+>.X.O..O... .          .       .... OOO.O+Xo+++X+@;4;3&44X2X$X",
".;+.OOO... . .                 ..... .OOX++.   +>1422.:@3@>@4+1+",
"$++ O..O.... .                    ..  ...+. . oO>X+31;3O1@>+2222"
};
