/* XPM */
static char *horror_wall_4[] = {
/* columns rows colors chars-per-pixel */
"64 64 145 2 ",
"   c #040201",
".  c #0B0503",
"X  c #0D0806",
"o  c #0E0B08",
"O  c #120704",
"+  c #1B0705",
"@  c #120906",
"#  c #1B0A06",
"$  c #140D09",
"%  c #1B0E09",
"&  c #16110D",
"*  c #1C120D",
"=  c #161310",
"-  c #1C1611",
";  c #1E1814",
":  c #220A07",
">  c #230E09",
",  c #2A0E0A",
"<  c #300E09",
"1  c #24120C",
"2  c #2B120C",
"3  c #33140D",
"4  c #3B150E",
"5  c #35180F",
"6  c #3A180F",
"7  c #231611",
"8  c #2C1710",
"9  c #251A14",
"0  c #2C1B14",
"q  c #251E19",
"w  c #2B1F18",
"e  c #341710",
"r  c #3D1710",
"t  c #331C14",
"y  c #3B1C13",
"u  c #301F18",
"i  c #24221D",
"p  c #2D221B",
"a  c #322017",
"s  c #3D2117",
"d  c #33231B",
"f  c #3B241B",
"g  c #32281F",
"h  c #3D291E",
"j  c #2A2520",
"k  c #2E2B25",
"l  c #352720",
"z  c #342A22",
"x  c #3C2C23",
"c  c #3D3126",
"v  c #36312B",
"b  c #3C332B",
"n  c #3B3630",
"m  c #44160F",
"M  c #49160F",
"N  c #44180F",
"B  c #4A180F",
"V  c #461710",
"C  c #4A1710",
"Z  c #451B13",
"A  c #4B1C12",
"S  c #531C13",
"D  c #591C13",
"F  c #442116",
"G  c #4A2116",
"H  c #43251A",
"J  c #4B251A",
"K  c #442A1E",
"L  c #4B2B1E",
"P  c #532116",
"I  c #5C2116",
"U  c #532419",
"Y  c #5C2619",
"T  c #532A1D",
"R  c #5B291C",
"E  c #61291C",
"W  c #432C21",
"Q  c #4B2E21",
"!  c #522D21",
"~  c #5C2E21",
"^  c #443126",
"/  c #4B3225",
"(  c #43362C",
")  c #4B3429",
"_  c #463A2F",
"`  c #4E3B2D",
"'  c #533325",
"]  c #5C3525",
"[  c #533629",
"{  c #5B3628",
"}  c #533B2C",
"|  c #5B3A2A",
" . c #423C35",
".. c #4D3E30",
"X. c #443E38",
"o. c #513F31",
"O. c #613425",
"+. c #6A3323",
"@. c #643C2B",
"#. c #6B3D2C",
"$. c #743C2B",
"%. c #4F4034",
"&. c #464039",
"*. c #4A443D",
"=. c #544234",
"-. c #5A4333",
";. c #574836",
":. c #564539",
">. c #5D4638",
",. c #5D4C3C",
"<. c #66412F",
"1. c #6A412F",
"2. c #7B422F",
"3. c #624231",
"4. c #6C4634",
"5. c #624937",
"6. c #6B4937",
"7. c #644C3B",
"8. c #694C3B",
"9. c #724530",
"0. c #784633",
"q. c #764935",
"w. c #7B4A35",
"e. c #754D3A",
"r. c #7C4C39",
"t. c #63503F",
"y. c #6C513F",
"u. c #74523E",
"i. c #7E513D",
"p. c #6E5542",
"a. c #745442",
"s. c #7B5641",
"d. c #7B5A46",
"f. c #71564B",
"g. c #7A5B48",
"h. c #864B34",
"j. c #8A523B",
"k. c #93553E",
"l. c #835540",
"z. c #895540",
"x. c #855B46",
"c. c #875F48",
"v. c #905C46",
"b. c #8D624C",
"n. c #91654D",
/* pixels */
"1 % # .   X .     .       .   .                             .   .   . .     O . .           X @ $ % > @ @ > 2 % 8 2 1 % X 2 1 $ ",
"% X . @ . O O .   . .     . .                           .       . . .     O   O .   .         # O * 2 @ % $ 1 % % 2 $ % X @ 8 2 ",
"1 1 % @ O . # .   O   X .                                 .   . .   .     X . . .             # % > y % % 2 e 8 1 2 X X 1 2 @ 8 ",
"$ 2 # @ @ . O . .   .   . .                                           . .   O   X             # > X 7 8 * e e t 7 1 % @ 8 2 $ X ",
"% > @ . .   .                                                           .       . .       .   X % X $ X . > 7 > O X * o % X @ X ",
"= $ o .                                                                                       o k n n X.*.*.*.&.X.n n v k j ; - ",
"                                                                                        X .   X   .                             ",
".                                                                       . . X X o       . .     X X $ = $ & & X $ X o . . . X X ",
"& $ $ & $ @ X $ X O     . . .                                 .           . .   .         X X X & * K K K ; * s d f s * - & a 8 ",
"0 y e 8 * % % O $ . X . . . . X .     .         .     .   .       . . . . . . . o   . . . X o = a f K L 9 p 9 s W d ] W - d f a ",
"t & * & 1 2 % $ X .   . . X .       . .     . .       .   X   o .     o . . X . o o o o @ % $ a L H f h 9 ; d p Q [ W Q 9 K L 0 ",
"0 7 y 0 8 8 $ O X X X X . O .         . . .       .   .       . X . .   X . X X o o $ & * - 0 s a W a q q q l W [ Q 9 d * f Q s ",
"F H H 2 8 % * * X X X X . .         .     .         . . .   . . . . X . X X X X @ % % - 7 - - f f Q K 9 0 f @.| W f 7 - 7 0 d d ",
"0 L a t s $ 8 * @ 1 @ @ X     .   .       . .       . .     .     . . X X @ $ # % % % * 7 - f L p a f i Q l W Q d l 0 7 W K 0 7 ",
"9 - t a s 0 * * @ 1 O O X   X . . . X         .       .   . . . o X X X X X $ $ $ * % * 7 7 a h f K K p ' x l W l ' x Q ' #.W p ",
"p h T s 0 X 1 7 $ 1 # . X . .   . . .   .     . . .     .   .   . . X X X $ X $ % $ $ & 1 a a a 9 p K d 3.| d Q l Q w | #.Q f W ",
"L h L T 0 * 1 & > > # X X . .     . .       .     .     X . . . . . X X X X $ $ $ $ & * * 0 s 9 p f Q | <.| f / ' ] h K d Q f h ",
"' f Q d - * 7 1 $ # % @ . O O .   . .   .   . . . .   . . . . . . X . @ X @ # $ % > $ 9 * 0 f d p K W W [ } 3.[ @.h.1.' / / | @.",
"t Q d t * * 7 2 8 $ % # . O O X .   . O   .   .       .     . . . X X X @ X $ # > $ 1 * * 0 f f a / x ^ g ) q./ 1.k.j.1.d W ' ] ",
"h - 9 0 9 - 7 1 7 % % # X O X .         .   .             X   . . . X . X X O $ % * $ & & 0 f f d d ^ W h <.w.1.j.r.| d / W / ' ",
"0 d H T s - % * 7 > % # . O . .                       . .     . . @ X . X X $ O $ $ * $ * 9 f Q g a K 9.<.w.k.] 0.w.@.q ' h d h ",
"f t 9 d f 7 $ @ o 1 $ O . O . . . X         .               X X . X @ @ X X X $ @ $ $ * 7 7 d Q / g Q <.w.0.[ [ 4.e.4.{ | f K f ",
"f t 0 w 0 7 0 X o o . . . O . . . .                       .         . @ X   X # * 1 % & 7 7 d K W 3.g a W g / [ z.r.6.4.w.W Q Q ",
"; ; = o X .                                                                                   X X X . o @ @ @ $ $ & & $ $ & & - ",
".                                                                                             . X o p c c l @ X . .   .         ",
"X . .                                                                                       . X X O & * & - =.=.` ^ g p - $ o . ",
"o 7 = & * X . .                                                           . . . $ X X o & & - p p q p q l ) -.) -.c [ ) i ; d - ",
"p 0 0 t - o o X O X X X     o                                       . . o X o $ & & & * - - 0 l x x ` >.-.s.o.7.%.s.i.-.x ) h i ",
"q s 0 0 * $ $ $ $ X   .                                           .   . . o o = * - - * 9 9 d / ` ` -.y.s.7.s.f.t.b.u.u.c [ g i ",
"d w - & 9 1 & $ $ O . . .                                     . X o . . o o $ = * 1 9 * 9 0 x c } ` 7.s.g.b.b.g.x.=.:.>.` c p d ",
"; 9 & - 1 = $ X X X . .     .                                   . X . o X $ & - 7 9 q 7 p q g c ` =.7.7.7.;.,.t.b.b.:.( ` c j j ",
"- 9 - * * X X X X X     .                                     O X X . X X % 1 7 0 8 8 0 p 0 x ) =.u.u.a.,.b.,.a.x.x.8.z z x d p ",
"& ; & & $ o o & $ .   .                               .     X O . X X X $ & 7 - e 0 0 t d i x ^ o.6.l.x.g.u.d.a.y.t.-.z c h p - ",
"& * & & $ o X o . o                                   . X X . X X X X $ $ $ - % 0 t 9 8 d d x ' 9.4.u.g.y.u.a.a.7.8.-.%./ g p - ",
"& * * $ $ o o . . o .   .                           . .   X X O @ $ $ % $ - % 7 e 0 t 0 g p Q ' 9.e.8.t.,.u.,.5.u.i.3.b g p q - ",
"& & o o $ o o . .                         .       .   X O X X # $ % % 1 % > 7 t y u t t x 0 L ! 2.r.5.-.5.b.y.5.e.4.[ g g a i * ",
"& & X X & . o o                             . . . X X . @ X X % % % % 1 % 7 8 e y u Z J J f J ] 2.0.6.;.>.e.e.8.=.-.| K p 0 ; - ",
"* * o o o . . . o                           .   . O X O @ @ $ % % 1 % 1 * - e e s s u F J H L ' $.@.#.=.<.-.;.-.3.` c p p ; - & ",
"% & o o & . . .   . .                     . X   O @ X @ # $ $ > > > 2 % 1 7 8 Z s J Z F J K f ' $.$.#.o.%.<.%.-.-.c h i 9 - & & ",
"$ & o X . o o o . .       .     .     .     X . X O # % > $ % , > 8 % 2 * 7 y Z y H t G J L H T +.' ] ' | <.| [ ^ g a i - * * & ",
"* * X X X X . .   .         .   .     . . . O . @ # # > > > % 2 , 2 2 % * 7 Z G s H Z J F H f T ~ R ' ' @.@.] ' x L a 9 7 1 & $ ",
"$ X X X .   .   . .         . O . .   O O . X X $ # > 3 , 2 > 2 2 3 , 8 8 8 Z Z A U y J G L s T E T Q ' ] O.O.L K K p 7 7 $ * % ",
"$ # X   X . . .   .     .   . . O O   O O . . X @ # > < 2 3 > , < < , e 2 8 A A G A y F P P G R E L T H L Y R L K f p 0 2 * 7 * ",
"% % X X .   . . O . .   O O O . O . O + O X X O @ : > 2 3 < 2 3 4 4 , 7 8 V S A A u y A I P G Y Y U P J T Y R J F G 5 8 5 > * * ",
"$ O . . . . . . .   . . O . . O O O O : : # O O @ % : , 1 2 > 3 4 4 , , e A S A y y Z S I P N P E U P P U U U G F t s 6 N 1 $ $ ",
"# > X . . X . . O .   O . . O O O . O : # : @ O @ % % 2 > * 1 3 3 , 2 2 e V r 8 y P A S I S y A I B D S A G I B 6 5 5 5 6 2 > % ",
"# % . X . O . . .     .   . O O : . . + # : # o @ # # > , 1 * 2 > 2 > 2 3 e e 4 C A V C D C y A Z B D S S B B B 5 8 2 3 5 > 1 2 ",
"% X X X X O . . .   . O . . O O + O O : # : # X @ # : > > 2 > 2 2 2 % 7 < e m V C C C M S B 4 Z A N S D S 6 N N 8 7 * > 2 > > # ",
"$ # O X X . . . . . . . . . O + O O O # O : : O X $ : , > > , 2 > 1 % > < 4 M M m C m M D N 3 6 A N C S B 5 6 4 2 1 , < , % : $ ",
"@ O O X . . O . . . . . . O O O O O O : + : : O X + : : > , , < 1 1 # 1 > 3 m M m 4 6 M S 6 2 3 5 6 Z m 4 4 4 3 3 1 < < , > $ @ ",
"$ X X . O . O   . O . O . + O   O + O + + : + O X + : : > < , 2 < 2 % 1 > 2 3 6 V r 3 4 m 6 1 2 3 3 3 3 m m 1 * 4 4 < < < : @ X ",
"% # O O . . X . . . .   O O O + O + O + # + # O @ # # : # > > > > > # > : 2 2 3 4 4 3 3 4 3 > 3 m 4 4 4 1 1 % , 4 3 4 < < % @ : ",
": :   . . . . O O O O     . O O O O   O + + O . X O O # % # > > % % % > % , 2 3 2 3 3 4 3 2 2 3 4 1 6 4 2 1 * 1 2 2 3 > : % # $ ",
"$ $ X X . .               .           .         . .     .       . . . X @ @ @ @ @ @ O X @ O @ @ & p d x _ ( ( ) ( ^ l g p p 0 * ",
"                                                                    . . @ . . @ @ @ X X @ @ @ $ @ . . . X . . .   .   . .       ",
"                                                                      . . . . . . . . . X . @ O X .   .   . O . O . O .     .   ",
"  . .                                                                 . . . . . .   . . . O X . . . . . @ . X X . . .   .       ",
"                                                                                .     . .   .   .   .     .                     ",
": O O O O     .                                                           . O   .     @ . @ O # # . % X @ > o @ # # O # $ O # : ",
"1 # % @ # + O     O O   . . .                       .       . O .   . O .   O . . . @ O @ # % > 1 : X X # 3 @ # 2 3 2 O X % 2 % ",
"X # # $ O # @     O O O     . .     .   .                 . .   .   . . O   O   . @ + @ X O > 2 2 , @ : > > 3 : % 2 6 @ X % 2 3 ",
"# $ : X O . O   . O     .   O                           .           O . .   O O @ X X @ X X @ @ @ @ O % # 5 : 3 % 6 6 X 2 X # X ",
". > X X O . O . . .   .   .                                       . . .     O O X @ . .       @ : 1 3 2 2 X , # 3 # > @ 5 O 1 $ ",
"# @ @   O O   . O . . .   .                           .             . .     . . . @ . . .   X X > X $ 5 2 # 3 @ 2 $ : $ 2 2 2 2 "
};
